X: 1032
T: Wimbush Rag
C:Theo and Gus Clark
B: jims roots
M:2/4
L:1/8
Q: 1/4=100
K:D
V:1 
%C:from the Milliner Koken Collection
%Z:abcNotation by Christy McCain
"A"a3b afff | "D"d2e2fa3 | "A"a3b afff | "D"d2e2fd3 :|
"G"AB2c BAF2 | "D"A2Ac BAF2 | "G"B2Bc BAF2 | "D"f2e2 f2d2-|
d2A2 | [M:2/4]"G"B2Bc BAF2 | "D"A2Ac BAF2 | "G"B2Bc BAFD | "D"FDED B,2D2-|
D2A2 | [M:2/4]"G"B2Bc BAF2 | "D"f2e2 f2d2-| [M:1/4]d4 ||
% abcbook-tune_id 6298c2974a35d332537d4001


% abcbook-boost 0
% abcbook-tablature 
% abcbook-transpose 
% abcbook-lastupdated 1654178457020
% abcbook-soundfonts 
% abcbook-repeats 1


